X: 94
T:Sponc Bogel
T:Belly Jerk
M:6/8
L:1/8
Q:130
R:Jig
N:I'm not entirely convinced by the English translation
N:given here.  My dictionary gives 'bogel' as hub (of wheel)
N:although the English 'umbilical cord' is given
N:as 'bogeilin' and dialects are sufficiently variable to allow
N:'bogelin' as an alternative.  B.M.
N:.
S:Cadw Twmpath Collection
A:Wales
Z:brian_martin12345@yahoo.com
K:D
c2Ae2e|c2Ae2e|d2d efg|f3d3:||
efg aga|efg aga|e2ee2a|f3d3:||
